X: 140
T: REEL: Maids of Mount Kisco
C: C: Paddy Killoran (?); S: Various
C: Set Leaders: Mars, Anton
Z: Mars Agliullin ed., Anton Zille ed.; Torc at The Session
N: https://thesession.org/members/26966/sets/94255
R: Reel
M: 4/4
L: 1/8
Q: 1/2=100
K: Ador
AG|:EA~A2 B2AG|EA~A2 BGAG|EG~G2 AG~G2|EG~G2 EGDG|
EA~A2 B2AG|EA~A2 BABd|eg~g2 a2ge|1 dBGB A2AG:|2 dBGB ABdB||
|:AGAB dBAB|G2BG DGBG|AGAB d2Bd|1 eg~g2 gedB:|2 eg~g2 egdg||
|:ea~a2 b2af|gedB GABd|ea~a2 b2af|gede g2eg|
a2ae ~g3e|dedB GABd|eA~A2 efge|1 dBGB A2Bd:|2 dBGB A2||

